**kern	**kern
*part1	*part1
*staff2	*staff1
*I"Piano	*
*clefF4	*clefG2
*k[b-e-a-]	*k[b-e-a-]
=1	=1
4E-	(12aa-L
.	12cc
.	12gJ)
4D	(12ffL
.	12bn
.	12gJ)
=	=
4C	12ee-`L
.	12g`
.	12bn`J
4r	12cc`L
.	12dd`
.	12ee-`J
=	=
4D	(12ffL
.	12b-
.	12fJ)
4C	(12ee-L
.	12a-
.	12fJ)
=	=
4BB-	12dd`L
.	12f`
.	12a-`J
4r	12b-`L
.	12cc`
.	12dd`J
=	=
4GG	12r
.	12e-L 12g
.	12fJ 12a-
4EE-	12g`L 12b-
.	12a-` 12cc
.	12b-`J 12dd-X
=	=
4AA-	12ccL
.	12b-
.	12a-J
4r	12a-L
.	12g
.	12fJ
=	=
4BB-	12e-L
.	12f
.	12gJ
.	16qqg/
4BB-	12fL
.	12e-
.	12dJ
=	=
2EE- [2E-	12e-L
.	12B-
.	12GJ
.	12e-L
.	12B-
.	12GJ
=	=
4E-]	12e-L
.	12B-
.	12GJ
4BB-	12dL
.	12B-
.	12A-J
=	=
4E-	4G 4B- 4e-
4E-	4G 4B- 4e-
=	=
4E-	4G 4B- 4e-
==	==
*-	*-
!!!system-decoration: {(s1,s2)}
